; generated by Slic3r 0.9.10b on 2013-09-30 at 08:31:42

; layer_height = .2
; perimeters = 3
; top_solid_layers = 3
; bottom_solid_layers = 3
; fill_density = .2
; perimeter_speed = 30
; infill_speed = 30
; travel_speed = 200
; nozzle_diameter = .5
; filament_diameter = 1.75
; extrusion_multiplier = 1.0
; perimeters extrusion width = 0.60mm
; infill extrusion width = 0.60mm
; solid infill extrusion width = 0.60mm
; top infill extrusion width = 0.60mm
; first layer extrusion width = 0.60mm

G21 ; set units to millimeters
M107
M190 S90 ; wait for bed temperature to be reached
M104 S218 ; set temperature
G28 ; home all axes
M109 S218 ; wait for temperature to be reached
G90 ; use absolute coordinates
G92 E0
M82 ; use absolute distances for extrusion
G1 Z0.350 F12000.000
G1 F4800.000 E-8.00000
G1 Z0.550 F12000.000
G92 E0
G1 X17.810 Y18.532
G1 Z0.350
G1 F4800.000 E8.10000
G1 X17.130 Y19.182 F720.000 E8.17919
G1 X14.390 Y21.312 E8.47136
G1 X13.730 Y21.742 E8.53767
G1 X10.680 Y23.392 E8.82960
G1 X9.970 Y23.702 E8.89482
G1 X6.690 Y24.832 E9.18688
G1 X5.930 Y25.022 E9.25283
G1 X2.510 Y25.592 E9.54471
G1 X1.730 Y25.662 E9.61064
G1 X-1.740 Y25.662 E9.90276
G1 X-2.520 Y25.592 E9.96869
G1 X-5.940 Y25.022 E10.26057
G1 X-6.700 Y24.832 E10.32652
G1 X-9.980 Y23.702 E10.61858
G1 X-10.690 Y23.392 E10.68380
G1 X-13.740 Y21.742 E10.97573
G1 X-14.400 Y21.312 E11.04204
G1 X-17.140 Y19.182 E11.33421
G1 X-17.710 Y18.652 E11.39973
G1 X-20.060 Y16.102 E11.69166
G1 X-20.550 Y15.482 E11.75819
G1 X-22.440 Y12.582 E12.04960
G1 X-22.800 Y11.902 E12.11437
G1 X-24.200 Y8.722 E12.40687
G1 X-24.460 Y7.972 E12.47370
G1 X-25.310 Y4.612 E12.76547
G1 X-25.440 Y3.842 E12.83121
G1 X-25.730 Y0.292 E13.13107
G1 X-25.720 Y-0.388 E13.18832
G1 X-25.440 Y-3.838 E13.47971
G1 X-25.310 Y-4.618 E13.54628
G1 X-24.460 Y-7.988 E13.83887
G1 X-24.200 Y-8.738 E13.90570
G1 X-22.800 Y-11.908 E14.19743
G1 X-22.440 Y-12.578 E14.26146
G1 X-20.550 Y-15.488 E14.55357
G1 X-20.060 Y-16.118 E14.62076
G1 X-17.710 Y-18.668 E14.91269
G1 X-17.140 Y-19.198 E14.97822
G1 X-14.400 Y-21.328 E15.27038
G1 X-13.740 Y-21.758 E15.33670
G1 X-10.690 Y-23.408 E15.62863
G1 X-9.970 Y-23.718 E15.69462
G1 X-6.690 Y-24.838 E15.98640
G1 X-5.940 Y-25.028 E16.05153
G1 X-2.520 Y-25.598 E16.34342
G1 X-1.740 Y-25.668 E16.40935
G1 X1.730 Y-25.668 E16.70147
G1 X2.510 Y-25.598 E16.76740
G1 X5.930 Y-25.028 E17.05928
G1 X6.680 Y-24.838 E17.12442
G1 X9.960 Y-23.718 E17.41620
G1 X10.680 Y-23.408 E17.48219
G1 X13.730 Y-21.758 E17.77412
G1 X14.390 Y-21.328 E17.84043
G1 X17.000 Y-19.298 E18.11879
G1 X17.700 Y-18.668 E18.19807
G1 X20.050 Y-16.118 E18.49000
G1 X20.540 Y-15.488 E18.55719
G1 X22.430 Y-12.578 E18.84931
G1 X22.790 Y-11.908 E18.91334
G1 X24.190 Y-8.738 E19.20507
G1 X24.450 Y-7.988 E19.27190
G1 X25.300 Y-4.618 E19.56449
G1 X25.430 Y-3.838 E19.63106
G1 X25.710 Y-0.388 E19.92245
G1 X25.710 Y0.372 E19.98643
G1 X25.430 Y3.832 E20.27866
G1 X25.300 Y4.612 E20.34523
G1 X24.450 Y7.972 E20.63701
G1 X24.190 Y8.722 E20.70383
G1 X22.790 Y11.902 E20.99633
G1 X22.430 Y12.582 E21.06111
G1 X20.540 Y15.482 E21.35252
G1 X20.050 Y16.102 E21.41904
G1 X17.869 Y18.468 E21.68996
G1 X17.390 Y18.142 F12000.000
G1 X16.770 Y18.722 F720.000 E21.76144
G1 X14.030 Y20.852 E22.05360
G1 X13.460 Y21.232 E22.11127
G1 X10.410 Y22.882 E22.40320
G1 X9.780 Y23.152 E22.46091
G1 X6.500 Y24.282 E22.75296
G1 X5.830 Y24.452 E22.81115
G1 X2.410 Y25.022 E23.10304
G1 X1.730 Y25.082 E23.16050
G1 X-1.740 Y25.082 E23.45263
G1 X-2.420 Y25.022 E23.51009
G1 X-5.840 Y24.452 E23.80198
G1 X-6.510 Y24.282 E23.86017
G1 X-9.790 Y23.152 E24.15222
G1 X-10.420 Y22.882 E24.20993
G1 X-13.470 Y21.232 E24.50186
G1 X-14.040 Y20.852 E24.55953
G1 X-16.780 Y18.722 E24.85169
G1 X-17.290 Y18.262 E24.90951
G1 X-19.640 Y15.712 E25.20144
G1 X-20.060 Y15.162 E25.25970
G1 X-21.950 Y12.262 E25.55111
G1 X-22.270 Y11.672 E25.60761
G1 X-23.670 Y8.492 E25.90012
G1 X-23.900 Y7.832 E25.95896
G1 X-24.750 Y4.472 E26.25073
G1 X-24.860 Y3.792 E26.30872
G1 X-25.150 Y0.252 E26.60773
G1 X-25.140 Y-0.348 E26.65825
G1 X-24.860 Y-3.798 E26.94964
G1 X-24.750 Y-4.478 E27.00763
G1 X-23.900 Y-7.848 E27.30022
G1 X-23.670 Y-8.508 E27.35906
G1 X-22.270 Y-11.678 E27.65080
G1 X-21.960 Y-12.258 E27.70616
G1 X-20.070 Y-15.168 E27.99827
G1 X-19.640 Y-15.728 E28.05771
G1 X-17.290 Y-18.278 E28.34964
G1 X-16.780 Y-18.738 E28.40746
G1 X-14.040 Y-20.868 E28.69963
G1 X-13.470 Y-21.248 E28.75730
G1 X-10.420 Y-22.898 E29.04923
G1 X-9.780 Y-23.168 E29.10770
G1 X-6.500 Y-24.288 E29.39949
G1 X-5.840 Y-24.458 E29.45686
G1 X-2.420 Y-25.028 E29.74875
G1 X-1.740 Y-25.088 E29.80621
G1 X1.730 Y-25.088 E30.09834
G1 X2.410 Y-25.028 E30.15581
G1 X5.830 Y-24.458 E30.44769
G1 X6.490 Y-24.288 E30.50507
G1 X9.770 Y-23.168 E30.79685
G1 X10.410 Y-22.898 E30.85532
G1 X13.460 Y-21.248 E31.14725
G1 X14.030 Y-20.868 E31.20492
G1 X16.750 Y-18.758 E31.49473
G1 X17.280 Y-18.278 E31.55492
G1 X19.630 Y-15.728 E31.84685
G1 X20.060 Y-15.168 E31.90629
G1 X21.950 Y-12.258 E32.19841
G1 X22.260 Y-11.678 E32.25377
G1 X23.660 Y-8.508 E32.54550
G1 X23.890 Y-7.848 E32.60434
G1 X24.740 Y-4.478 E32.89693
G1 X24.850 Y-3.798 E32.95492
G1 X25.130 Y-0.348 E33.24632
G1 X25.130 Y0.332 E33.30356
G1 X24.850 Y3.792 E33.59579
G1 X24.740 Y4.472 E33.65378
G1 X23.890 Y7.832 E33.94556
G1 X23.660 Y8.492 E34.00440
G1 X22.260 Y11.672 E34.29690
G1 X21.940 Y12.262 E34.35341
G1 X20.050 Y15.162 E34.64481
G1 X19.630 Y15.712 E34.70307
G1 X17.449 Y18.078 E34.97399
G1 X16.960 Y17.752 F12000.000
G1 X16.420 Y18.272 F720.000 E35.03710
G1 X13.680 Y20.402 E35.32927
G1 X13.180 Y20.722 E35.37924
G1 X10.130 Y22.372 E35.67117
G1 X9.600 Y22.602 E35.71981
G1 X6.320 Y23.732 E36.01187
G1 X5.740 Y23.882 E36.06230
G1 X2.320 Y24.452 E36.35418
G1 X1.730 Y24.502 E36.40403
G1 X-1.740 Y24.502 E36.69615
G1 X-2.330 Y24.452 E36.74600
G1 X-5.750 Y23.882 E37.03789
G1 X-6.330 Y23.732 E37.08832
G1 X-9.610 Y22.602 E37.38037
G1 X-10.140 Y22.372 E37.42901
G1 X-13.190 Y20.722 E37.72094
G1 X-13.690 Y20.402 E37.77092
G1 X-16.430 Y18.272 E38.06308
G1 X-16.860 Y17.872 E38.11252
G1 X-19.210 Y15.322 E38.40445
G1 X-19.580 Y14.842 E38.45547
G1 X-21.470 Y11.942 E38.74688
G1 X-21.750 Y11.432 E38.79586
G1 X-23.150 Y8.252 E39.08836
G1 X-23.340 Y7.692 E39.13815
G1 X-24.190 Y4.332 E39.42992
G1 X-24.290 Y3.742 E39.48030
G1 X-24.570 Y0.212 E39.77841
G1 X-24.570 Y-0.298 E39.82134
G1 X-24.290 Y-3.748 E40.11273
G1 X-24.190 Y-4.338 E40.16311
G1 X-23.340 Y-7.708 E40.45570
G1 X-23.140 Y-8.278 E40.50655
G1 X-21.740 Y-11.448 E40.79829
G1 X-21.470 Y-11.948 E40.84612
G1 X-19.580 Y-14.858 E41.13824
G1 X-19.210 Y-15.338 E41.18926
G1 X-16.860 Y-17.888 E41.48119
G1 X-16.430 Y-18.288 E41.53063
G1 X-13.690 Y-20.418 E41.82280
G1 X-13.190 Y-20.738 E41.87277
G1 X-10.140 Y-22.388 E42.16470
G1 X-9.600 Y-22.628 E42.21445
G1 X-6.320 Y-23.748 E42.50623
G1 X-5.750 Y-23.888 E42.55564
G1 X-2.330 Y-24.458 E42.84752
G1 X-1.740 Y-24.508 E42.89737
G1 X1.730 Y-24.508 E43.18949
G1 X2.320 Y-24.458 E43.23934
G1 X5.740 Y-23.888 E43.53123
G1 X6.310 Y-23.748 E43.58064
G1 X9.590 Y-22.628 E43.87242
G1 X10.130 Y-22.388 E43.92217
G1 X13.180 Y-20.738 E44.21410
G1 X13.680 Y-20.408 E44.26453
G1 X16.400 Y-18.298 E44.55433
G1 X16.850 Y-17.888 E44.60558
G1 X19.200 Y-15.338 E44.89751
G1 X19.570 Y-14.858 E44.94853
G1 X21.460 Y-11.948 E45.24065
G1 X21.730 Y-11.448 E45.28848
G1 X23.130 Y-8.278 E45.58022
G1 X23.330 Y-7.708 E45.63107
G1 X24.180 Y-4.338 E45.92366
G1 X24.280 Y-3.748 E45.97404
G1 X24.560 Y-0.298 E46.26543
G1 X24.560 Y0.282 E46.31426
G1 X24.280 Y3.742 E46.60649
G1 X24.180 Y4.332 E46.65687
G1 X23.330 Y7.692 E46.94864
G1 X23.140 Y8.252 E46.99843
G1 X21.740 Y11.432 E47.29093
G1 X21.460 Y11.942 E47.33991
G1 X19.570 Y14.842 E47.63132
G1 X19.200 Y15.322 E47.68234
G1 X17.019 Y17.688 E47.95326
G1 Z0.350 F12000.000
G1 F4800.000 E39.95326
G1 Z0.550 F12000.000
G92 E0
G1 X13.268 Y14.352
G1 Z0.350
G1 F4800.000 E8.10000
G1 X10.692 Y16.366 F720.000 E8.37529
G1 X7.853 Y17.902 E8.64710
G1 X4.799 Y18.951 E8.91890
G1 X1.614 Y19.482 E9.19070
G1 X-1.614 Y19.482 E9.46251
G1 X-4.799 Y18.951 E9.73431
G1 X-7.853 Y17.902 E10.00611
G1 X-10.692 Y16.366 E10.27792
G1 X-13.240 Y14.382 E10.54972
G1 X-15.427 Y12.007 E10.82152
G1 X-17.193 Y9.304 E11.09332
G1 X-18.489 Y6.347 E11.36513
G1 X-19.282 Y3.218 E11.63693
G1 X-19.549 Y0.000 E11.90873
G1 X-19.282 Y-3.218 E12.18054
G1 X-18.489 Y-6.347 E12.45234
G1 X-17.193 Y-9.304 E12.72414
G1 X-15.427 Y-12.007 E12.99595
G1 X-13.240 Y-14.382 E13.26775
G1 X-10.692 Y-16.366 E13.53955
G1 X-7.853 Y-17.902 E13.81136
G1 X-4.799 Y-18.951 E14.08316
G1 X-1.614 Y-19.482 E14.35496
G1 X1.614 Y-19.482 E14.62677
G1 X4.799 Y-18.951 E14.89857
G1 X7.853 Y-17.902 E15.17037
G1 X10.692 Y-16.366 E15.44217
G1 X13.240 Y-14.382 E15.71398
G1 X15.427 Y-12.007 E15.98578
G1 X17.193 Y-9.304 E16.25758
G1 X18.489 Y-6.347 E16.52939
G1 X19.282 Y-3.218 E16.80119
G1 X19.549 Y-0.000 E17.07299
G1 X19.282 Y3.218 E17.34480
G1 X18.489 Y6.347 E17.61660
G1 X17.193 Y9.304 E17.88840
G1 X15.427 Y12.007 E18.16021
G1 X13.327 Y14.288 E18.42117
G1 X13.694 Y14.743 F12000.000
G1 X13.633 Y14.810 F720.000 E18.42874
G1 X11.010 Y16.852 E18.70861
G1 X8.086 Y18.434 E18.98849
G1 X4.941 Y19.513 E19.26836
G1 X1.662 Y20.060 E19.54824
G1 X-1.662 Y20.060 E19.82811
G1 X-4.941 Y19.513 E20.10799
G1 X-8.086 Y18.434 E20.38786
G1 X-11.010 Y16.852 E20.66774
G1 X-13.633 Y14.810 E20.94761
G1 X-15.885 Y12.364 E21.22749
G1 X-17.703 Y9.580 E21.50736
G1 X-19.039 Y6.536 E21.78724
G1 X-19.833 Y3.400 E22.05954
G1 X-19.855 Y3.313 E22.06711
G1 X-20.129 Y0.000 E22.34698
G1 X-19.855 Y-3.313 E22.62686
G1 X-19.039 Y-6.536 E22.90673
G1 X-17.703 Y-9.580 E23.18661
G1 X-15.885 Y-12.364 E23.46648
G1 X-13.633 Y-14.810 E23.74636
G1 X-11.010 Y-16.852 E24.02623
G1 X-8.086 Y-18.434 E24.30611
G1 X-4.941 Y-19.513 E24.58598
G1 X-1.662 Y-20.060 E24.86586
G1 X1.662 Y-20.060 E25.14573
G1 X4.941 Y-19.513 E25.42561
G1 X8.086 Y-18.434 E25.70548
G1 X11.010 Y-16.852 E25.98536
G1 X13.633 Y-14.810 E26.26523
G1 X15.885 Y-12.364 E26.54510
G1 X17.654 Y-9.656 E26.81741
G1 X17.703 Y-9.580 E26.82498
G1 X19.039 Y-6.536 E27.10485
G1 X19.855 Y-3.313 E27.38473
G1 X20.129 Y-0.000 E27.66460
G1 X19.855 Y3.313 E27.94448
G1 X19.039 Y6.536 E28.22435
G1 X17.703 Y9.580 E28.50423
G1 X15.885 Y12.364 E28.78410
G1 X13.753 Y14.680 E29.04910
G1 X14.120 Y15.135 F12000.000
G1 X14.026 Y15.237 F720.000 E29.06071
G1 X11.327 Y17.337 E29.34865
G1 X8.319 Y18.965 E29.63660
G1 X5.084 Y20.076 E29.92454
G1 X1.710 Y20.639 E30.21249
G1 X-1.710 Y20.639 E30.50044
G1 X-5.084 Y20.076 E30.78838
G1 X-8.319 Y18.965 E31.07633
G1 X-11.327 Y17.337 E31.36428
G1 X-14.026 Y15.237 E31.65222
G1 X-16.343 Y12.720 E31.94017
G1 X-18.214 Y9.857 E32.22811
G1 X-19.588 Y6.724 E32.51606
G1 X-20.427 Y3.409 E32.80401
G1 X-20.710 Y-0.000 E33.09195
G1 X-20.427 Y-3.409 E33.37990
G1 X-19.588 Y-6.724 E33.66785
G1 X-18.269 Y-9.730 E33.94418
G1 X-18.214 Y-9.857 E33.95579
G1 X-16.343 Y-12.720 E34.24374
G1 X-14.026 Y-15.237 E34.53168
G1 X-11.327 Y-17.338 E34.81963
G1 X-8.319 Y-18.965 E35.10758
G1 X-5.084 Y-20.076 E35.39552
G1 X-1.710 Y-20.639 E35.68347
G1 X1.710 Y-20.639 E35.97141
G1 X5.084 Y-20.076 E36.25936
G1 X8.319 Y-18.965 E36.54731
G1 X11.327 Y-17.337 E36.83525
G1 X14.026 Y-15.237 E37.12320
G1 X16.343 Y-12.720 E37.41115
G1 X18.214 Y-9.857 E37.69909
G1 X19.588 Y-6.724 E37.98704
G1 X20.427 Y-3.409 E38.27498
G1 X20.710 Y-0.000 E38.56293
G1 X20.427 Y3.409 E38.85088
G1 X19.588 Y6.724 E39.13882
G1 X18.214 Y9.857 E39.42677
G1 X16.343 Y12.720 E39.71472
G1 X14.178 Y15.071 E39.98375
G1 X13.985 Y15.105 F12000.000
G1 X18.598 Y-4.211
G1 X18.598 Y4.211 F720.000 E40.69734
G1 X18.016 Y6.384 E40.88797
G1 X18.016 Y-6.384 E41.96982
G1 X17.433 Y-7.711 E42.09265
G1 X17.433 Y7.711 E43.39949
G1 X16.851 Y9.039 E43.52233
G1 X16.851 Y-9.039 E45.05415
G1 X16.269 Y-9.952 E45.14589
G1 X16.269 Y9.951 E46.83238
G1 X15.686 Y10.843 E46.92260
G1 X15.686 Y-10.843 E48.76015
G1 X15.104 Y-11.734 E48.85036
G1 X15.104 Y11.734 E50.83896
G1 X14.522 Y12.371 E50.91208
G1 X14.522 Y-12.371 E53.00860
G1 X13.939 Y-13.003 E53.08146
G1 X13.939 Y13.003 E55.28518
G1 X13.357 Y13.636 E55.35803
G1 X13.357 Y-13.636 E57.66895
G1 X12.775 Y-14.213 E57.73842
G1 X12.775 Y14.213 E60.14714
G1 X12.192 Y14.666 E60.20967
G1 X12.192 Y-14.666 E62.69521
G1 X11.610 Y-15.120 E62.75773
G1 X11.610 Y15.120 E65.32008
G1 X11.028 Y15.573 E65.38261
G1 X11.028 Y-15.573 E68.02176
G1 X10.445 Y-16.022 E68.08409
G1 X10.445 Y16.022 E70.79939
G1 X9.863 Y16.337 E70.85550
G1 X9.863 Y-16.337 E73.62421
G1 X9.281 Y-16.652 E73.68032
G1 X9.281 Y16.652 E76.50244
G1 X8.699 Y16.968 E76.55854
G1 X8.699 Y-16.968 E79.43407
G1 X8.116 Y-17.283 E79.49017
G1 X8.116 Y17.283 E82.41911
G1 X7.534 Y17.568 E82.47406
G1 X7.534 Y-17.568 E85.45138
G1 X6.952 Y-17.768 E85.50355
G1 X6.952 Y17.768 E88.51475
G1 X6.369 Y17.968 E88.56692
G1 X6.369 Y-17.968 E91.61200
G1 X5.787 Y-18.168 E91.66417
G1 X5.787 Y18.168 E94.74313
G1 X5.205 Y18.368 E94.79530
G1 X5.205 Y-18.368 E97.90813
G1 X4.622 Y-18.555 E97.95996
G1 X4.622 Y18.555 E101.10448
G1 X4.040 Y18.652 E101.15450
G1 X4.040 Y-18.652 E104.31549
G1 X3.458 Y-18.749 E104.36552
G1 X3.458 Y18.749 E107.54298
G1 X2.875 Y18.846 E107.59300
G1 X2.875 Y-18.846 E110.78693
G1 X2.293 Y-18.944 E110.83696
G1 X2.293 Y18.944 E114.04735
G1 X1.711 Y19.041 E114.09738
G1 X1.711 Y-19.041 E117.32424
G1 X1.128 Y-19.063 E117.37362
G1 X1.128 Y19.063 E120.60419
G1 X0.546 Y19.063 E120.65353
G1 X0.546 Y-19.063 E123.88410
G1 X-0.036 Y-19.063 E123.93344
G1 X-0.036 Y19.063 E127.16401
G1 X-0.619 Y19.063 E127.21335
G1 X-0.619 Y-19.063 E130.44392
G1 X-1.201 Y-19.063 E130.49327
G1 X-1.201 Y19.063 E133.72384
G1 X-1.783 Y19.029 E133.77326
G1 X-1.783 Y-19.029 E136.99807
G1 X-2.366 Y-18.931 E137.04810
G1 X-2.366 Y18.931 E140.25644
G1 X-2.948 Y18.834 E140.30646
G1 X-2.948 Y-18.834 E143.49833
G1 X-3.530 Y-18.737 E143.54836
G1 X-3.530 Y18.737 E146.72376
G1 X-4.113 Y18.640 E146.77379
G1 X-4.113 Y-18.640 E149.93272
G1 X-4.695 Y-18.543 E149.98275
G1 X-4.695 Y18.543 E153.12522
G1 X-5.277 Y18.343 E153.17738
G1 X-5.277 Y-18.343 E156.28599
G1 X-5.860 Y-18.143 E156.33816
G1 X-5.860 Y18.143 E159.41289
G1 X-6.442 Y17.943 E159.46506
G1 X-6.442 Y-17.943 E162.50591
G1 X-7.024 Y-17.743 E162.55808
G1 X-7.024 Y17.743 E165.56506
G1 X-7.607 Y17.543 E165.61723
G1 X-7.607 Y-17.543 E168.59032
G1 X-8.189 Y-17.243 E168.64582
G1 X-8.189 Y17.243 E171.56809
G1 X-8.771 Y16.928 E171.62419
G1 X-8.771 Y-16.928 E174.49306
G1 X-9.354 Y-16.613 E174.54916
G1 X-9.354 Y16.613 E177.36462
G1 X-9.936 Y16.298 E177.42072
G1 X-9.936 Y-16.298 E180.18277
G1 X-10.518 Y-15.970 E180.23942
G1 X-10.518 Y15.970 E182.94581
G1 X-11.100 Y15.516 E183.00833
G1 X-11.100 Y-15.516 E185.63791
G1 X-11.683 Y-15.063 E185.70043
G1 X-11.683 Y15.063 E188.25320
G1 X-12.265 Y14.610 E188.31572
G1 X-12.265 Y-14.610 E190.79167
G1 X-12.847 Y-14.157 E190.85420
G1 X-12.847 Y14.157 E193.25334
G1 X-13.430 Y13.557 E193.32415
G1 X-13.430 Y-13.557 E195.62170
G1 X-14.012 Y-12.925 E195.69456
G1 X-14.012 Y12.925 E197.88490
G1 X-14.594 Y12.292 E197.95776
G1 X-14.594 Y-12.292 E200.04090
G1 X-15.177 Y-11.623 E200.11606
G1 X-15.177 Y11.623 E202.08581
G1 X-15.759 Y10.732 E202.17603
G1 X-15.759 Y-10.732 E203.99473
G1 X-16.341 Y-9.840 E204.08494
G1 X-16.341 Y9.840 E205.75259
G1 X-16.924 Y8.873 E205.84825
G1 X-16.924 Y-8.873 E207.35200
G1 X-17.506 Y-7.546 E207.47484
G1 X-17.506 Y7.546 E208.75360
G1 X-18.088 Y6.218 E208.87644
G1 X-18.088 Y-6.218 E209.93022
G1 X-18.671 Y-3.924 E210.13079
G1 X-18.671 Y3.924 E210.79575
M104 S220 ; set temperature
G1 Z0.550 F12000.000
G1 X-19.209 Y3.505
G1 X-19.282 Y3.218 F1800.000 E210.81001
G1 X-19.549 Y-0.000 E210.96532
G1 X-19.282 Y-3.218 E211.12064
G1 X-18.489 Y-6.347 E211.27596
G1 X-17.193 Y-9.304 E211.43127
G1 X-15.427 Y-12.007 E211.58659
G1 X-13.240 Y-14.382 E211.74191
G1 X-10.692 Y-16.366 E211.89722
G1 X-7.853 Y-17.902 E212.05254
G1 X-4.799 Y-18.951 E212.20785
G1 X-1.614 Y-19.482 E212.36317
G1 X1.614 Y-19.482 E212.51849
G1 X4.799 Y-18.951 E212.67380
G1 X7.853 Y-17.902 E212.82912
G1 X10.692 Y-16.366 E212.98443
G1 X13.240 Y-14.382 E213.13975
G1 X15.427 Y-12.007 E213.29507
G1 X17.193 Y-9.304 E213.45038
G1 X18.489 Y-6.347 E213.60570
G1 X19.282 Y-3.218 E213.76101
