; generated by Slic3r 0.9.10b on 2013-09-25 at 14:50:08

; layer_height = .2
; perimeters = 1
; top_solid_layers = 5
; bottom_solid_layers = 5
; fill_density = .2
; perimeter_speed = 30
; infill_speed = 30
; travel_speed = 200
; nozzle_diameter = .5
; filament_diameter = 1.75
; extrusion_multiplier = 1.0
; perimeters extrusion width = 0.60mm
; infill extrusion width = 0.60mm
; solid infill extrusion width = 0.60mm
; top infill extrusion width = 0.60mm
; first layer extrusion width = 0.60mm

G21 ; set units to millimeters
M107
M190 S90 ; wait for bed temperature to be reached
M104 S218 ; set temperature
G28 ; home all axes
M109 S218 ; wait for temperature to be reached
G90 ; use absolute coordinates
G92 E0
M82 ; use absolute distances for extrusion
G1 Z0.350 F12000.000
G1 F3600.000 E-8.00000
G1 Z0.550 F12000.000
G92 E0
G1 X15.230 Y-13.138
G1 Z0.350
G1 F3600.000 E8.10000
G1 X20.550 Y0.332 F720.000 E9.31921
G1 X20.800 Y1.182 E9.39380
G1 X20.890 Y2.072 E9.46911
G1 X20.890 Y14.592 E10.52311
G1 X20.670 Y20.742 E11.04117
G1 X20.480 Y21.932 E11.14262
G1 X19.980 Y23.032 E11.24435
G1 X19.230 Y23.982 E11.34624
G1 X18.260 Y24.702 E11.44794
G1 X17.140 Y25.152 E11.54955
G1 X15.940 Y25.312 E11.65147
G1 X-15.860 Y25.312 E14.32855
G1 X-17.050 Y25.152 E14.42963
G1 X-18.160 Y24.712 E14.53015
G1 X-19.130 Y24.002 E14.63135
G1 X-19.880 Y23.072 E14.73193
G1 X-20.380 Y21.982 E14.83289
G1 X-20.590 Y20.802 E14.93379
G1 X-20.900 Y14.292 E15.48245
G1 X-20.900 Y2.072 E16.51119
G1 X-20.810 Y1.182 E16.58650
G1 X-20.560 Y0.332 E16.66109
G1 X-15.180 Y-13.308 E17.89547
G1 X-14.600 Y-14.628 E18.01685
G1 X-14.330 Y-15.138 E18.06543
G1 X-13.600 Y-16.368 E18.18584
G1 X-13.260 Y-16.858 E18.23605
G1 X-12.370 Y-17.998 E18.35780
G1 X-11.940 Y-18.478 E18.41205
G1 X-10.850 Y-19.538 E18.54005
G1 X-10.530 Y-19.828 E18.57641
G1 X-9.840 Y-20.388 E18.65122
G1 X-8.940 Y-20.958 E18.74090
G1 X-7.930 Y-21.318 E18.83117
G1 X-6.860 Y-21.448 E18.92191
G1 X6.840 Y-21.448 E20.07524
G1 X8.400 Y-21.178 E20.20853
G1 X9.780 Y-20.418 E20.34115
G1 X10.550 Y-19.808 E20.42385
G1 X10.940 Y-19.468 E20.46741
G1 X11.960 Y-18.458 E20.58825
G1 X12.360 Y-17.998 E20.63957
G1 X13.250 Y-16.858 E20.76133
G1 X13.590 Y-16.368 E20.81153
G1 X14.320 Y-15.138 E20.93194
G1 X14.590 Y-14.628 E20.98052
G1 X15.201 Y-13.220 E21.10975
G1 X14.700 Y-12.928 F12000.000
G1 X20.020 Y0.542 F720.000 E22.32897
G1 X20.230 Y1.292 E22.39453
G1 X20.310 Y2.072 E22.46054
G1 X20.310 Y14.592 E23.51454
G1 X20.090 Y20.722 E24.03093
G1 X19.920 Y21.762 E24.11964
G1 X19.490 Y22.732 E24.20896
G1 X18.830 Y23.562 E24.29824
G1 X17.980 Y24.192 E24.38731
G1 X16.990 Y24.592 E24.47719
G1 X15.940 Y24.732 E24.56637
G1 X-15.860 Y24.732 E27.24346
G1 X-16.900 Y24.592 E27.33180
G1 X-17.880 Y24.202 E27.42059
G1 X-18.730 Y23.582 E27.50917
G1 X-19.390 Y22.762 E27.59778
G1 X-19.830 Y21.802 E27.68668
G1 X-20.010 Y20.772 E27.77471
G1 X-20.320 Y14.292 E28.32085
G1 X-20.320 Y2.072 E29.34959
G1 X-20.240 Y1.292 E29.41560
G1 X-20.030 Y0.542 E29.48117
G1 X-14.710 Y-12.928 E30.70038
G1 X-14.070 Y-14.388 E30.83458
G1 X-13.830 Y-14.838 E30.87752
G1 X-13.100 Y-16.068 E30.99793
G1 X-12.810 Y-16.508 E31.04229
G1 X-11.920 Y-17.648 E31.16404
G1 X-11.540 Y-18.068 E31.21173
G1 X-10.450 Y-19.128 E31.33972
G1 X-9.480 Y-19.938 E31.44611
G1 X-8.250 Y-20.628 E31.56484
G1 X-6.860 Y-20.868 E31.68359
G1 X6.840 Y-20.868 E32.83692
G1 X8.210 Y-20.638 E32.95387
G1 X9.420 Y-19.968 E33.07031
G1 X10.190 Y-19.358 E33.15301
G1 X10.530 Y-19.048 E33.19174
G1 X11.550 Y-18.038 E33.31258
G1 X11.910 Y-17.648 E33.35727
G1 X12.800 Y-16.508 E33.47902
G1 X13.090 Y-16.068 E33.52338
G1 X13.820 Y-14.838 E33.64380
G1 X14.060 Y-14.388 E33.68673
G1 X14.666 Y-13.008 E33.81362
G1 X14.110 Y-12.838 F12000.000
G1 X19.480 Y0.762 F720.000 E35.04456
G1 X19.670 Y1.402 E35.10076
G1 X19.730 Y2.072 E35.15739
G1 X19.730 Y14.722 E36.22234
G1 X19.520 Y20.702 E36.72607
G1 X19.310 Y21.772 E36.81787
G1 X18.790 Y22.732 E36.90978
G1 X18.000 Y23.492 E37.00207
G1 X17.020 Y23.982 E37.09431
G1 X15.940 Y24.152 E37.18635
G1 X-15.860 Y24.152 E39.86343
G1 X-16.930 Y23.982 E39.95464
G1 X-17.910 Y23.502 E40.04651
G1 X-18.690 Y22.762 E40.13702
G1 X-19.220 Y21.802 E40.22934
G1 X-19.430 Y20.742 E40.32031
G1 X-19.740 Y14.292 E40.86393
G1 X-19.740 Y2.072 E41.89267
G1 X-19.680 Y1.402 E41.94930
G1 X-19.490 Y0.762 E42.00550
G1 X-14.120 Y-12.838 E43.23644
G1 X-13.540 Y-14.158 E43.35782
G1 X-13.340 Y-14.548 E43.39472
G1 X-12.610 Y-15.778 E43.51513
G1 X-12.350 Y-16.148 E43.55320
G1 X-11.460 Y-17.288 E43.67495
G1 X-11.130 Y-17.658 E43.71669
G1 X-10.040 Y-18.718 E43.84469
G1 X-9.810 Y-18.928 E43.87091
G1 X-9.120 Y-19.488 E43.94572
G1 X-8.060 Y-20.078 E44.04785
G1 X-6.860 Y-20.288 E44.15040
G1 X6.840 Y-20.288 E45.30374
G1 X8.020 Y-20.088 E45.40449
G1 X9.060 Y-19.518 E45.50433
G1 X9.830 Y-18.908 E45.58703
G1 X10.130 Y-18.638 E45.62101
G1 X11.150 Y-17.628 E45.74185
G1 X11.450 Y-17.288 E45.78003
G1 X12.340 Y-16.148 E45.90178
G1 X12.600 Y-15.778 E45.93985
G1 X13.330 Y-14.548 E46.06026
G1 X13.530 Y-14.158 E46.09716
G1 X14.075 Y-12.918 E46.21123
G1 Z0.350 F12000.000
G1 F3600.000 E38.21123
G1 Z0.550 F12000.000
G92 E0
G1 X13.818 Y5.911
G1 Z0.350
G1 F3600.000 E8.10000
G1 X13.818 Y18.446 F720.000 E9.15531
G1 X-13.718 Y18.446 E11.47340
G1 X-13.718 Y5.911 E12.52871
G1 X13.731 Y5.911 E14.83950
G1 X13.239 Y6.489 F12000.000
G1 X13.239 Y17.868 F720.000 E15.79740
G1 X-13.139 Y17.868 E18.01808
G1 X-13.139 Y6.489 E18.97599
G1 X13.153 Y6.489 E21.18936
G1 X14.618 Y4.786 F12000.000
G1 X14.618 Y2.946 F720.000 E21.34428
G1 X15.291 Y2.946 E21.40093
G1 X15.291 Y14.448 E22.36921
G1 X15.126 Y15.183 E22.43265
G1 X15.082 Y15.816 E22.48603
G1 X15.082 Y19.711 E22.81390
G1 X-14.982 Y19.711 E25.34488
G1 X-14.982 Y15.791 E25.67485
G1 X-15.050 Y15.014 E25.74051
G1 X-15.127 Y14.654 E25.77152
G1 X-15.291 Y14.135 E25.81735
G1 X-15.291 Y2.946 E26.75925
G1 X-14.618 Y2.946 E26.81590
G1 X-14.618 Y4.758 E26.96844
G1 X-13.230 Y4.221 E27.09373
G1 X-12.706 Y3.986 E27.14206
G1 X-12.484 Y3.874 E27.16298
G1 X-11.823 Y3.447 E27.22926
G1 X-11.318 Y3.026 E27.28457
G1 X-10.954 Y2.656 E27.32829
G1 X-10.540 Y2.143 E27.38377
G1 X-10.142 Y1.504 E27.44713
G1 X-9.914 Y1.029 E27.49152
G1 X-9.694 Y0.419 E27.54612
G1 X-9.525 Y-0.323 E27.61012
G1 X-9.467 Y-0.849 E27.65468
G1 X-9.469 Y-1.620 E27.71963
G1 X-9.547 Y-2.247 E27.77283
G1 X-9.666 Y-2.762 E27.81731
G1 X-10.275 Y-4.546 E27.97596
G1 X-10.553 Y-5.853 E28.08846
G1 X-10.667 Y-7.177 E28.20035
G1 X-10.614 Y-8.508 E28.31253
G1 X-10.397 Y-9.820 E28.42442
G1 X-10.018 Y-11.093 E28.53625
G1 X-9.484 Y-12.309 E28.64808
G1 X-8.800 Y-13.454 E28.76038
G1 X-7.854 Y-14.666 E28.88977
G1 X-7.718 Y-14.619 E28.90190
G1 X-7.718 Y-7.384 E29.51100
G1 X-7.604 Y-6.081 E29.62110
G1 X-7.255 Y-4.781 E29.73441
G1 X-6.687 Y-3.561 E29.84771
G1 X-5.915 Y-2.458 E29.96101
G1 X-4.963 Y-1.507 E30.07432
G1 X-3.861 Y-0.735 E30.18762
G1 X-2.641 Y-0.166 E30.30092
G1 X-1.341 Y0.182 E30.41422
G1 X0.000 Y0.300 E30.52753
G1 X1.341 Y0.182 E30.64083
G1 X2.641 Y-0.166 E30.75413
G1 X3.861 Y-0.735 E30.86744
G1 X4.963 Y-1.507 E30.98074
G1 X5.915 Y-2.458 E31.09404
G1 X6.687 Y-3.561 E31.20735
G1 X7.256 Y-4.781 E31.32065
G1 X7.604 Y-6.081 E31.43395
G1 X7.718 Y-7.384 E31.54405
G1 X7.718 Y-14.619 E32.15316
G1 X7.854 Y-14.666 E32.16528
G1 X8.800 Y-13.454 E32.29470
G1 X9.484 Y-12.309 E32.40696
G1 X10.018 Y-11.093 E32.51879
G1 X10.397 Y-9.820 E32.63061
G1 X10.614 Y-8.505 E32.74283
G1 X10.667 Y-7.179 E32.85455
G1 X10.554 Y-5.854 E32.96652
G1 X10.275 Y-4.546 E33.07910
G1 X9.813 Y-3.219 E33.19736
G1 X9.626 Y-2.616 E33.25047
G1 X9.492 Y-1.862 E33.31499
G1 X9.455 Y-1.325 E33.36032
G1 X9.479 Y-0.684 E33.41430
G1 X9.581 Y-0.036 E33.46953
G1 X9.762 Y0.634 E33.52792
G1 X10.000 Y1.224 E33.58151
G1 X10.418 Y1.964 E33.65307
G1 X10.821 Y2.499 E33.70945
G1 X11.169 Y2.884 E33.75318
G1 X11.570 Y3.243 E33.79844
G1 X11.795 Y3.427 E33.82293
G1 X12.231 Y3.722 E33.86723
G1 X12.822 Y4.049 E33.92408
G1 X14.537 Y4.754 E34.08023
G1 X14.039 Y3.925 F12000.000
G1 X14.039 Y2.368 F720.000 E34.21135
G1 X15.869 Y2.368 E34.36541
G1 X15.869 Y14.549 E35.39086
G1 X15.818 Y14.692 E35.40371
G1 X15.699 Y15.267 E35.45309
G1 X15.661 Y15.835 E35.50107
G1 X15.661 Y20.289 E35.87601
G1 X-15.561 Y20.289 E38.50439
G1 X-15.561 Y15.816 E38.88095
G1 X-15.623 Y15.096 E38.94178
G1 X-15.683 Y14.816 E38.96594
G1 X-15.869 Y14.224 E39.01818
G1 X-15.869 Y2.368 E40.01628
G1 X-14.039 Y2.368 E40.17034
G1 X-14.039 Y3.914 E40.30053
G1 X-13.465 Y3.692 E40.35239
G1 X-12.766 Y3.368 E40.41726
G1 X-12.238 Y3.034 E40.46982
G1 X-11.714 Y2.603 E40.52696
G1 X-11.382 Y2.266 E40.56671
G1 X-11.004 Y1.796 E40.61754
G1 X-10.653 Y1.231 E40.67351
G1 X-10.446 Y0.799 E40.71387
G1 X-10.245 Y0.242 E40.76367
G1 X-10.097 Y-0.413 E40.82021
G1 X-10.045 Y-0.891 E40.86070
G1 X-10.040 Y-1.477 E40.91010
G1 X-10.117 Y-2.144 E40.96656
G1 X-10.225 Y-2.611 E41.00698
G1 X-10.834 Y-4.393 E41.16545
G1 X-11.127 Y-5.767 E41.28378
G1 X-11.246 Y-7.164 E41.40175
G1 X-11.191 Y-8.567 E41.52001
G1 X-10.961 Y-9.950 E41.63799
G1 X-10.562 Y-11.292 E41.75590
G1 X-9.999 Y-12.575 E41.87381
G1 X-9.278 Y-13.782 E41.99219
G1 X-8.417 Y-14.885 E42.10996
G1 X-7.424 Y-15.873 E42.22792
G1 X-7.139 Y-16.094 E42.25824
G1 X-7.139 Y-7.409 E42.98935
G1 X-7.032 Y-6.182 E43.09307
G1 X-6.710 Y-4.979 E43.19785
G1 X-6.184 Y-3.851 E43.30263
G1 X-5.470 Y-2.832 E43.40741
G1 X-4.590 Y-1.952 E43.51219
G1 X-3.705 Y-1.332 E43.60311
G1 X-3.570 Y-1.238 E43.61697
G1 X-2.442 Y-0.712 E43.72175
G1 X-1.240 Y-0.390 E43.82653
G1 X0.000 Y-0.281 E43.93131
G1 X1.240 Y-0.390 E44.03609
G1 X2.442 Y-0.712 E44.14088
G1 X3.570 Y-1.238 E44.24566
G1 X4.590 Y-1.952 E44.35044
G1 X5.470 Y-2.832 E44.45522
G1 X6.184 Y-3.851 E44.56000
G1 X6.710 Y-4.979 E44.66478
G1 X7.032 Y-6.182 E44.76956
G1 X7.139 Y-7.409 E44.87327
G1 X7.139 Y-16.093 E45.60436
G1 X7.424 Y-15.873 E45.63467
G1 X8.417 Y-14.885 E45.75262
G1 X9.279 Y-13.782 E45.87042
G1 X9.999 Y-12.575 E45.98876
G1 X10.562 Y-11.293 E46.10667
G1 X10.961 Y-9.950 E46.22457
G1 X11.191 Y-8.564 E46.34288
G1 X11.246 Y-7.166 E46.46068
G1 X11.127 Y-5.768 E46.57873
G1 X10.834 Y-4.393 E46.69715
G1 X10.360 Y-3.027 E46.81881
G1 X10.188 Y-2.475 E46.86751
G1 X10.068 Y-1.804 E46.92490
G1 X10.034 Y-1.316 E46.96609
G1 X10.056 Y-0.736 E47.01491
G1 X10.147 Y-0.155 E47.06443
G1 X10.310 Y0.444 E47.11671
G1 X10.527 Y0.982 E47.16556
G1 X10.811 Y1.504 E47.21560
G1 X11.181 Y2.029 E47.26964
G1 X11.578 Y2.474 E47.31983
G1 X12.147 Y2.967 E47.38321
G1 X12.666 Y3.309 E47.43556
G1 X13.075 Y3.528 E47.47462
G1 X13.959 Y3.892 E47.55511
G1 X13.859 Y5.491 F12000.000
G1 X13.859 Y4.930 F720.000 E47.60260
G1 X13.278 Y4.692 E47.65565
G1 X13.278 Y5.491 E47.72320
G1 X12.697 Y5.491 E47.77231
G1 X12.697 Y4.446 E47.86068
G1 X12.116 Y4.141 E47.91616
G1 X12.116 Y5.491 E48.03032
G1 X11.535 Y5.491 E48.07943
G1 X11.535 Y3.757 E48.22604
G1 X10.954 Y3.253 E48.29108
G1 X10.954 Y5.491 E48.48033
G1 X10.373 Y5.491 E48.52944
G1 X10.373 Y2.614 E48.77270
G1 X9.793 Y1.719 E48.86290
G1 X9.793 Y5.491 E49.18182
G1 X9.212 Y5.491 E49.23093
G1 X9.212 Y0.204 E49.67789
G1 X9.212 Y-2.678 F12000.000
G1 X9.212 Y-11.887 F720.000 E50.45638
G1 X9.793 Y-10.380 E50.59290
G1 X9.793 Y-4.435 E51.09548
G1 X8.050 Y-6.366 F12000.000
G1 X8.050 Y5.491 F720.000 E52.09781
G1 X7.469 Y5.491 E52.14693
G1 X7.469 Y-4.246 E52.97006
G1 X6.888 Y-3.117 E53.07738
G1 X6.888 Y5.491 E53.80509
G1 X6.307 Y5.491 E53.85421
G1 X6.307 Y-2.287 E54.51178
G1 X5.726 Y-1.677 E54.58304
G1 X5.726 Y5.491 E55.18899
G1 X5.145 Y5.491 E55.23810
G1 X5.145 Y-1.122 E55.79718
G1 X4.564 Y-0.715 E55.85714
G1 X4.564 Y5.491 E56.38183
G1 X3.983 Y5.491 E56.43094
G1 X3.983 Y-0.329 E56.92299
G1 X3.402 Y-0.058 E56.97718
G1 X3.402 Y5.491 E57.44633
G1 X2.821 Y5.491 E57.49544
G1 X2.821 Y0.213 E57.94168
G1 X2.240 Y0.375 E57.99269
G1 X2.240 Y5.491 E58.42517
G1 X1.659 Y5.491 E58.47428
G1 X1.659 Y0.531 E58.89360
G1 X1.078 Y0.626 E58.94336
G1 X1.078 Y5.491 E59.35464
G1 X0.497 Y5.491 E59.40375
G1 X0.497 Y0.677 E59.81073
G1 X-0.084 Y0.713 E59.85994
G1 X-0.084 Y5.491 E60.26386
G1 X-0.665 Y5.491 E60.31297
G1 X-0.665 Y0.662 E60.72119
G1 X-1.245 Y0.612 E60.77048
G1 X-1.245 Y5.491 E61.18300
G1 X-1.826 Y5.491 E61.23211
G1 X-1.826 Y0.486 E61.65522
G1 X-2.407 Y0.331 E61.70606
G1 X-2.407 Y5.491 E62.14232
G1 X-2.988 Y5.491 E62.19143
G1 X-2.988 Y0.135 E62.64427
G1 X-3.569 Y-0.136 E62.69846
G1 X-3.569 Y5.491 E63.17420
G1 X-4.150 Y5.491 E63.22331
G1 X-4.150 Y-0.426 E63.72351
G1 X-4.731 Y-0.833 E63.78346
G1 X-4.731 Y5.491 E64.31806
G1 X-5.312 Y5.491 E64.36717
G1 X-5.312 Y-1.263 E64.93814
G1 X-5.893 Y-1.844 E65.00759
G1 X-5.893 Y5.491 E65.62767
G1 X-6.474 Y5.491 E65.67678
G1 X-6.474 Y-2.526 E66.35454
G1 X-7.055 Y-3.359 E66.44035
G1 X-7.055 Y5.491 E67.18847
G1 X-7.636 Y5.491 E67.23758
G1 X-7.636 Y-4.604 E68.09103
G1 X-9.379 Y-3.217 F12000.000
G1 X-9.379 Y-11.506 F720.000 E68.79177
G1 X-8.798 Y-12.641 E68.89952
G1 X-8.798 Y5.491 E70.43231
G1 X-8.217 Y5.491 E70.48142
G1 X-8.217 Y-13.366 E72.07552
G1 X-9.960 Y-9.818 F12000.000
G1 X-9.960 Y-5.078 F720.000 E72.47617
G1 X-9.379 Y0.779 F12000.000
G1 X-9.379 Y5.491 F720.000 E72.87449
G1 X-9.960 Y5.491 E72.92360
G1 X-9.960 Y2.003 E73.21851
G1 X-10.541 Y2.811 E73.30265
G1 X-10.541 Y5.491 E73.52924
G1 X-11.122 Y5.491 E73.57835
G1 X-11.122 Y3.408 E73.75450
G1 X-11.703 Y3.867 E73.81711
G1 X-11.703 Y5.491 E73.95442
G1 X-12.283 Y5.491 E74.00353
G1 X-12.283 Y4.242 E74.10912
G1 X-12.864 Y4.514 E74.16333
G1 X-12.864 Y5.491 E74.24596
G1 X-13.445 Y5.491 E74.29507
G1 X-13.445 Y4.754 E74.35736
G1 X-14.026 Y4.979 E74.41002
G1 X-14.026 Y5.491 E74.45332
G1 X8.631 Y5.491 F12000.000
G1 X8.631 Y-12.921 F720.000 E76.00979
G1 F3600.000 E68.00979
G1 Z0.550 F12000.000
G92 E0
G1 X13.806 Y-19.741
G1 X11.291 Y-22.028
G1 X7.351 Y-23.563
G1 X-7.507 Y-23.562
G1 X-13.343 Y-20.263
G1 X-30.239 Y0.080
G1 X-31.622 Y5.042
G1 X-30.313 Y10.014
G1 X-16.883 Y23.578
G1 X-14.026 Y19.121
G1 Z0.350
G1 F3600.000 E8.10000
G1 X-14.026 Y19.035 F720.000 E8.10727
G1 X-13.445 Y19.035 E8.15638
G1 X-13.445 Y19.121 E8.16366
G1 X-12.864 Y19.121 E8.21277
G1 X-12.864 Y19.035 E8.22004
G1 X-12.283 Y19.035 E8.26915
G1 X-12.283 Y19.121 E8.27643
G1 X-11.703 Y19.121 E8.32554
G1 X-11.703 Y19.035 E8.33281
G1 X-11.122 Y19.035 E8.38192
G1 X-11.122 Y19.121 E8.38920
G1 X-10.541 Y19.121 E8.43831
G1 X-10.541 Y19.035 E8.44558
G1 X-9.960 Y19.035 E8.49469
G1 X-9.960 Y19.121 E8.50196
G1 X-9.379 Y19.121 E8.55108
G1 X-9.379 Y19.035 E8.55835
G1 X-8.798 Y19.035 E8.60746
G1 X-8.798 Y19.121 E8.61473
G1 X-8.217 Y19.121 E8.66384
G1 X-8.217 Y19.035 E8.67112
G1 X-7.636 Y19.035 E8.72023
G1 X-7.636 Y19.121 E8.72750
G1 X-7.055 Y19.121 E8.77661
G1 X-7.055 Y19.035 E8.78389
G1 X-6.474 Y19.035 E8.83300
G1 X-6.474 Y19.121 E8.84027
G1 X-5.893 Y19.121 E8.88938
G1 X-5.893 Y19.035 E8.89666
G1 X-5.312 Y19.035 E8.94577
G1 X-5.312 Y19.121 E8.95304
G1 X-4.731 Y19.121 E9.00215
G1 X-4.731 Y19.035 E9.00942
G1 X-4.150 Y19.035 E9.05853
G1 X-4.150 Y19.121 E9.06581
G1 X-3.569 Y19.121 E9.11492
G1 X-3.569 Y19.035 E9.12219
G1 X-2.988 Y19.035 E9.17130
G1 X-2.988 Y19.121 E9.17858
G1 X-2.407 Y19.121 E9.22769
G1 X-2.407 Y19.035 E9.23496
G1 X-1.826 Y19.035 E9.28407
G1 X-1.826 Y19.121 E9.29135
G1 X-1.245 Y19.121 E9.34046
G1 X-1.245 Y19.035 E9.34773
G1 X-0.665 Y19.035 E9.39684
G1 X-0.665 Y19.121 E9.40411
G1 X-0.084 Y19.121 E9.45323
G1 X-0.084 Y19.035 E9.46050
G1 X0.497 Y19.035 E9.50961
G1 X0.497 Y19.121 E9.51688
G1 X1.078 Y19.121 E9.56599
G1 X1.078 Y19.035 E9.57327
G1 X1.659 Y19.035 E9.62238
G1 X1.659 Y19.121 E9.62965
G1 X2.240 Y19.121 E9.67876
G1 X2.240 Y19.035 E9.68604
G1 X2.821 Y19.035 E9.73515
G1 X2.821 Y19.121 E9.74242
G1 X3.402 Y19.121 E9.79153
G1 X3.402 Y19.035 E9.79881
G1 X3.983 Y19.035 E9.84792
G1 X3.983 Y19.121 E9.85519
G1 X4.564 Y19.121 E9.90430
G1 X4.564 Y19.035 E9.91157
G1 X5.145 Y19.035 E9.96068
G1 X5.145 Y19.121 E9.96796
G1 X5.726 Y19.121 E10.01707
G1 X5.726 Y19.035 E10.02434
G1 X6.307 Y19.035 E10.07345
G1 X6.307 Y19.121 E10.08073
G1 X6.888 Y19.121 E10.12984
G1 X6.888 Y19.035 E10.13711
G1 X7.469 Y19.035 E10.18622
G1 X7.469 Y19.121 E10.19350
G1 X8.050 Y19.121 E10.24261
G1 X8.050 Y19.035 E10.24988
G1 X8.631 Y19.035 E10.29899
G1 X8.631 Y19.121 E10.30627
G1 X9.212 Y19.121 E10.35538
