; generated by Slic3r 0.9.10b on 2013-09-25 at 15:35:36

; layer_height = .2
; perimeters = 1
; top_solid_layers = 0
; bottom_solid_layers = 0
; fill_density = 0
; perimeter_speed = 30
; infill_speed = 30
; travel_speed = 200
; nozzle_diameter = .5
; filament_diameter = 1.75
; extrusion_multiplier = 1.0
; perimeters extrusion width = 0.60mm
; infill extrusion width = 0.60mm
; solid infill extrusion width = 0.60mm
; top infill extrusion width = 0.60mm
; first layer extrusion width = 0.60mm

G21 ; set units to millimeters
M107
M190 S90 ; wait for bed temperature to be reached
M104 S218 ; set temperature
G28 ; home all axes
M109 S218 ; wait for temperature to be reached
G90 ; use absolute coordinates
G92 E0
M82 ; use absolute distances for extrusion
G1 Z0.350 F12000.000
G1 F3600.000 E-8.00000
G1 Z0.550 F12000.000
G92 E0
G1 X29.070 Y2.456
G1 Z0.350
G1 F3600.000 E8.10000
G1 X16.510 Y24.056 F720.000 E10.20347
G1 X15.760 Y25.036 E10.30736
G1 X14.770 Y25.786 E10.41192
G1 X13.630 Y26.256 E10.51573
G1 X12.400 Y26.416 E10.62015
G1 X-12.590 Y26.336 E12.72394
G1 X-13.810 Y26.166 E12.82764
G1 X-14.950 Y25.686 E12.93177
G1 X-15.930 Y24.936 E13.03566
G1 X-16.680 Y23.946 E13.14022
G1 X-29.100 Y2.266 E15.24364
G1 X-29.570 Y1.126 E15.34744
G1 X-29.730 Y-0.104 E15.45186
G1 X-29.560 Y-1.324 E15.55556
G1 X-29.080 Y-2.464 E15.65969
G1 X-16.520 Y-24.064 E17.76316
G1 X-15.770 Y-25.044 E17.86705
G1 X-14.780 Y-25.794 E17.97161
G1 X-13.640 Y-26.264 E18.07542
G1 X-12.410 Y-26.424 E18.17984
G1 X12.580 Y-26.344 E20.28364
G1 X13.800 Y-26.174 E20.38734
G1 X14.940 Y-25.694 E20.49147
G1 X15.920 Y-24.944 E20.59536
G1 X16.670 Y-23.954 E20.69991
G1 X29.090 Y-2.274 E22.80333
G1 X29.560 Y-1.134 E22.90714
G1 X29.720 Y0.096 E23.01156
G1 X29.550 Y1.316 E23.11525
G1 X29.104 Y2.376 E23.21208
G1 X28.570 Y2.166 F12000.000
G1 X16.010 Y23.766 F720.000 E25.31555
G1 X15.350 Y24.626 E25.40681
G1 X14.490 Y25.286 E25.49808
G1 X13.480 Y25.696 E25.58984
G1 X12.410 Y25.836 E25.68069
G1 X-12.580 Y25.756 E27.78448
G1 X-13.660 Y25.606 E27.87628
G1 X-14.660 Y25.186 E27.96759
G1 X-15.520 Y24.526 E28.05885
G1 X-16.180 Y23.666 E28.15011
G1 X-28.600 Y1.986 E30.25352
G1 X-29.010 Y0.976 E30.34529
G1 X-29.150 Y-0.094 E30.43613
G1 X-29.000 Y-1.174 E30.52793
G1 X-28.580 Y-2.174 E30.61924
G1 X-16.020 Y-23.774 E32.72271
G1 X-15.360 Y-24.634 E32.81397
G1 X-14.500 Y-25.294 E32.90523
G1 X-13.490 Y-25.704 E32.99700
G1 X-12.420 Y-25.844 E33.08784
G1 X12.570 Y-25.764 E35.19164
G1 X13.650 Y-25.614 E35.28343
G1 X14.650 Y-25.194 E35.37474
G1 X15.510 Y-24.534 E35.46600
G1 X16.170 Y-23.674 E35.55727
G1 X28.590 Y-1.994 E37.66068
G1 X29.000 Y-0.984 E37.75245
G1 X29.140 Y0.086 E37.84329
G1 X28.990 Y1.166 E37.93508
G1 X28.604 Y2.086 E38.01909
G1 X28.070 Y1.876 F12000.000
G1 X15.510 Y23.476 F720.000 E40.12256
G1 X14.940 Y24.216 E40.20119
G1 X14.200 Y24.776 E40.27932
G1 X13.340 Y25.136 E40.35781
G1 X12.410 Y25.256 E40.43675
G1 X-12.580 Y25.176 E42.54054
G1 X-13.510 Y25.046 E42.61960
G1 X-14.370 Y24.686 E42.69808
G1 X-15.110 Y24.116 E42.77672
G1 X-15.680 Y23.376 E42.85535
G1 X-28.100 Y1.696 E44.95877
G1 X-28.450 Y0.826 E45.03771
G1 X-28.570 Y-0.094 E45.11582
G1 X-28.440 Y-1.024 E45.19487
G1 X-28.080 Y-1.884 E45.27336
G1 X-15.520 Y-23.484 E47.37683
G1 X-14.950 Y-24.224 E47.45547
G1 X-14.210 Y-24.784 E47.53359
G1 X-13.350 Y-25.144 E47.61208
G1 X-12.420 Y-25.264 E47.69102
G1 X12.570 Y-25.184 E49.79482
G1 X13.500 Y-25.054 E49.87387
G1 X14.360 Y-24.694 E49.95236
G1 X15.100 Y-24.124 E50.03099
G1 X15.670 Y-23.384 E50.10963
G1 X28.090 Y-1.704 E52.21304
G1 X28.440 Y-0.834 E52.29198
G1 X28.560 Y0.086 E52.37009
G1 X28.430 Y1.016 E52.44914
G1 X28.104 Y1.796 E52.52033
G1 Z0.350 F12000.000
G1 F3600.000 E44.52033
G1 Z0.550 F12000.000
G92 E0
G1 X24.626 Y0.033
G1 Z0.350
G1 F3600.000 E8.10000
G1 X24.539 Y0.118 F720.000 E8.11022
G1 X12.285 Y21.343 E10.17351
G1 X12.168 Y21.310 E10.18373
G1 X-12.351 Y21.310 E12.24785
G1 X-18.507 Y10.648 E13.28429
G1 X-18.545 Y10.500 E13.29718
G1 X-24.626 Y-0.033 E14.32104
G1 X-24.539 Y-0.118 E14.33127
G1 X-12.285 Y-21.343 E16.39455
G1 X-12.168 Y-21.310 E16.40478
G1 X12.351 Y-21.310 E18.46889
G1 X18.507 Y-10.648 E19.50533
G1 X18.545 Y-10.500 E19.51822
G1 X24.582 Y-0.042 E20.53478
M107 S255
M104 S220 ; set temperature
G1 Z0.550 F12000.000
G1 X24.608 Y0.163
G1 X24.177 Y0.584 F600.000 E20.56378
G1 X12.163 Y21.392 E21.71965
G1 X11.583 Y21.230 E21.74864
G1 X-12.445 Y21.230 E22.90451
G1 X-12.497 Y21.028 E22.91456
G1 X-18.550 Y10.543 E23.49694
G1 X-18.647 Y10.162 E23.51588
G1 X-24.608 Y-0.162 E24.08937
G1 X-24.177 Y-0.584 E24.11836
G1 X-12.163 Y-21.392 E25.27423
G1 X-11.583 Y-21.230 E25.30323
G1 X12.445 Y-21.230 E26.45910
G1 X12.497 Y-21.028 E26.46915
G1 X18.550 Y-10.543 E27.05153
G1 X18.647 Y-10.162 E27.07047
G1 X24.565 Y0.087 E27.63979
G1 Z0.750 F12000.000
G1 X24.595 Y0.257
G1 X23.914 Y0.923 F600.000 E27.68561
G1 X12.075 Y21.428 E28.82465
G1 X11.158 Y21.172 E28.87048
G1 X-12.520 Y21.172 E30.00951
G1 X-12.615 Y20.800 E30.02798
G1 X-18.581 Y10.467 E30.60194
G1 X-18.722 Y9.916 E30.62930
G1 X-24.595 Y-0.257 E31.19437
G1 X-23.914 Y-0.923 E31.24020
G1 X-12.075 Y-21.428 E32.37924
G1 X-11.158 Y-21.172 E32.42507
G1 X12.520 Y-21.172 E33.56410
G1 X12.615 Y-20.800 E33.58257
G1 X18.581 Y-10.467 E34.15653
G1 X18.722 Y-9.916 E34.18389
G1 X24.552 Y0.182 E34.74479
G1 Z0.950 F12000.000
G1 X24.582 Y0.351
G1 X23.651 Y1.262 F600.000 E34.80745
G1 X11.987 Y21.464 E35.92965
G1 X10.732 Y21.113 E35.99232
G1 X-12.595 Y21.113 E37.11451
G1 X-12.734 Y20.572 E37.14140
G1 X-18.612 Y10.390 E37.70694
G1 X-18.796 Y9.670 E37.74272
G1 X-24.582 Y-0.351 E38.29938
G1 X-23.651 Y-1.262 E38.36204
G1 X-11.987 Y-21.464 E39.48424
G1 X-10.732 Y-21.113 E39.54691
G1 X12.595 Y-21.113 E40.66910
G1 X12.734 Y-20.572 E40.69599
G1 X18.612 Y-10.390 E41.26153
G1 X18.796 Y-9.670 E41.29731
G1 X24.539 Y0.276 E41.84979
G1 Z1.150 F12000.000
G1 X24.569 Y0.446
G1 X23.388 Y1.601 F600.000 E41.92929
G1 X11.899 Y21.500 E43.03465
G1 X10.307 Y21.055 E43.11416
G1 X-12.670 Y21.055 E44.21952
G1 X-12.852 Y20.344 E44.25482
G1 X-18.643 Y10.314 E44.81195
G1 X-18.871 Y9.424 E44.85614
G1 X-24.569 Y-0.446 E45.40438
G1 X-23.388 Y-1.601 E45.48388
G1 X-11.899 Y-21.500 E46.58924
G1 X-10.307 Y-21.055 E46.66874
G1 X12.670 Y-21.055 E47.77410
G1 X12.852 Y-20.344 E47.80941
G1 X18.643 Y-10.314 E48.36654
G1 X18.871 Y-9.424 E48.41073
G1 X24.526 Y0.370 E48.95479
G1 Z1.350 F12000.000
G1 X24.556 Y0.540
G1 X23.124 Y1.940 F600.000 E49.05113
G1 X11.810 Y21.536 E50.13965
G1 X9.882 Y20.996 E50.23600
G1 X-12.746 Y20.996 E51.32452
G1 X-12.971 Y20.116 E51.36824
G1 X-18.674 Y10.238 E51.91695
G1 X-18.945 Y9.178 E51.96956
G1 X-24.556 Y-0.540 E52.50938
G1 X-23.124 Y-1.940 E52.60572
G1 X-11.810 Y-21.536 E53.69424
G1 X-9.882 Y-20.996 E53.79058
G1 X12.746 Y-20.996 E54.87911
G1 X12.971 Y-20.116 E54.92283
G1 X18.674 Y-10.238 E55.47154
G1 X18.945 Y-9.178 E55.52415
G1 X24.513 Y0.465 E56.05979
G1 Z1.550 F12000.000
G1 X24.543 Y0.634
G1 X22.861 Y2.279 F600.000 E56.17297
G1 X11.722 Y21.572 E57.24466
G1 X9.457 Y20.938 E57.35783
G1 X-12.821 Y20.938 E58.42952
G1 X-13.090 Y19.888 E58.48166
G1 X-18.705 Y10.161 E59.02195
G1 X-19.020 Y8.932 E59.08299
G1 X-24.543 Y-0.634 E59.61438
G1 X-22.861 Y-2.279 E59.72756
G1 X-11.722 Y-21.572 E60.79925
G1 X-9.457 Y-20.938 E60.91242
G1 X12.821 Y-20.938 E61.98411
G1 X13.090 Y-19.888 E62.03625
G1 X18.705 Y-10.161 E62.57654
G1 X19.020 Y-8.932 E62.63757
G1 X24.500 Y0.559 E63.16480
G1 Z1.750 F12000.000
G1 X24.530 Y0.729
G1 X22.598 Y2.618 F600.000 E63.29481
G1 X11.634 Y21.608 E64.34966
G1 X9.031 Y20.879 E64.47967
G1 X-12.896 Y20.879 E65.53452
G1 X-13.208 Y19.660 E65.59508
G1 X-18.737 Y10.085 E66.12695
G1 X-19.095 Y8.686 E66.19641
G1 X-24.530 Y-0.729 E66.71939
G1 X-22.598 Y-2.618 E66.84940
G1 X-11.634 Y-21.608 E67.90425
G1 X-9.031 Y-20.879 E68.03426
G1 X12.896 Y-20.879 E69.08911
G1 X13.208 Y-19.660 E69.14967
G1 X18.737 Y-10.085 E69.68154
G1 X19.095 Y-8.686 E69.75100
G1 X24.487 Y0.654 E70.26980
G1 Z1.950 F12000.000
G1 X24.517 Y0.823
G1 X22.335 Y2.957 F600.000 E70.41665
G1 X11.546 Y21.644 E71.45466
G1 X8.606 Y20.821 E71.60151
G1 X-12.971 Y20.821 E72.63953
G1 X-13.327 Y19.432 E72.70851
G1 X-18.768 Y10.008 E73.23196
G1 X-19.169 Y8.440 E73.30983
G1 X-24.517 Y-0.823 E73.82439
G1 X-22.335 Y-2.957 E73.97124
G1 X-11.546 Y-21.644 E75.00925
G1 X-8.606 Y-20.821 E75.15610
G1 X12.971 Y-20.821 E76.19411
G1 X13.327 Y-19.432 E76.26309
G1 X18.768 Y-10.008 E76.78655
G1 X19.169 Y-8.440 E76.86442
G1 X24.474 Y0.748 E77.37480
G1 Z2.150 F12000.000
G1 X24.504 Y0.917
G1 X22.071 Y3.296 F600.000 E77.53849
G1 X11.458 Y21.680 E78.55966
G1 X8.181 Y20.763 E78.72335
G1 X-13.047 Y20.763 E79.74453
G1 X-13.446 Y19.204 E79.82193
G1 X-18.799 Y9.932 E80.33696
G1 X-19.244 Y8.194 E80.42325
G1 X-24.504 Y-0.917 E80.92939
G1 X-22.071 Y-3.296 E81.09308
G1 X-11.458 Y-21.680 E82.11425
G1 X-8.181 Y-20.763 E82.27794
G1 X13.047 Y-20.763 E83.29912
G1 X13.446 Y-19.204 E83.37652
G1 X18.799 Y-9.932 E83.89155
G1 X19.244 Y-8.194 E83.97784
G1 X24.461 Y0.842 E84.47980
G1 Z2.350 F12000.000
G1 X24.491 Y1.012
G1 X21.808 Y3.635 F600.000 E84.66033
G1 X11.369 Y21.716 E85.66467
G1 X7.756 Y20.704 E85.84519
G1 X-13.122 Y20.704 E86.84953
G1 X-13.564 Y18.976 E86.93535
G1 X-18.830 Y9.856 E87.44196
G1 X-19.318 Y7.948 E87.53667
G1 X-24.491 Y-1.012 E88.03439
G1 X-21.808 Y-3.635 E88.21492
G1 X-11.369 Y-21.716 E89.21926
G1 X-7.756 Y-20.704 E89.39978
G1 X13.122 Y-20.704 E90.40412
G1 X13.564 Y-18.976 E90.48994
G1 X18.830 Y-9.856 E90.99655
G1 X19.318 Y-7.948 E91.09126
G1 X24.448 Y0.937 E91.58481
G1 Z2.550 F12000.000
G1 X24.478 Y1.106
G1 X21.545 Y3.975 F600.000 E91.78217
G1 X11.281 Y21.752 E92.76967
G1 X7.330 Y20.646 E92.96703
G1 X-13.197 Y20.646 E93.95453
G1 X-13.683 Y18.748 E94.04877
G1 X-18.861 Y9.779 E94.54696
G1 X-19.393 Y7.703 E94.65009
G1 X-24.478 Y-1.106 E95.13940
G1 X-21.545 Y-3.975 E95.33676
G1 X-11.281 Y-21.752 E96.32426
G1 X-7.330 Y-20.646 E96.52162
G1 X13.197 Y-20.646 E97.50912
G1 X13.683 Y-18.748 E97.60336
G1 X18.861 Y-9.779 E98.10155
G1 X19.393 Y-7.703 E98.20468
G1 X24.435 Y1.031 E98.68981
G1 Z2.750 F12000.000
G1 X24.465 Y1.201
G1 X21.282 Y4.314 F600.000 E98.90401
G1 X11.193 Y21.788 E99.87467
G1 X6.905 Y20.587 E100.08887
G1 X-13.272 Y20.587 E101.05953
G1 X-13.802 Y18.520 E101.16219
G1 X-18.892 Y9.703 E101.65197
G1 X-19.467 Y7.457 E101.76351
G1 X-24.465 Y-1.201 E102.24440
G1 X-21.282 Y-4.314 E102.45860
G1 X-11.193 Y-21.788 E103.42926
G1 X-6.905 Y-20.587 E103.64346
G1 X13.272 Y-20.587 E104.61412
G1 X13.802 Y-18.520 E104.71678
G1 X18.892 Y-9.703 E105.20656
G1 X19.467 Y-7.457 E105.31810
G1 X24.422 Y1.125 E105.79481
G1 Z2.950 F12000.000
G1 X24.452 Y1.295
G1 X21.019 Y4.653 F600.000 E106.02585
G1 X11.105 Y21.824 E106.97967
G1 X6.480 Y20.529 E107.21071
G1 X-13.348 Y20.529 E108.16454
G1 X-13.920 Y18.292 E108.27561
G1 X-18.923 Y9.627 E108.75697
G1 X-19.542 Y7.211 E108.87693
G1 X-24.452 Y-1.295 E109.34940
G1 X-21.019 Y-4.653 E109.58044
G1 X-11.105 Y-21.824 E110.53426
G1 X-6.480 Y-20.529 E110.76530
G1 X13.348 Y-20.529 E111.71913
G1 X13.920 Y-18.292 E111.83020
G1 X18.923 Y-9.627 E112.31156
G1 X19.542 Y-7.211 E112.43152
G1 X24.409 Y1.220 E112.89981
G1 Z3.150 F12000.000
G1 X24.440 Y1.389
G1 X20.755 Y4.992 F600.000 E113.14769
G1 X11.017 Y21.860 E114.08468
G1 X6.055 Y20.471 E114.33255
G1 X-13.423 Y20.471 E115.26954
G1 X-14.039 Y18.064 E115.38903
G1 X-18.955 Y9.550 E115.86197
G1 X-19.616 Y6.965 E115.99035
G1 X-24.440 Y-1.389 E116.45440
G1 X-20.755 Y-4.992 E116.70228
G1 X-11.017 Y-21.860 E117.63927
G1 X-6.055 Y-20.471 E117.88714
G1 X13.423 Y-20.471 E118.82413
G1 X14.039 Y-18.064 E118.94362
G1 X18.955 Y-9.550 E119.41656
G1 X19.616 Y-6.965 E119.54494
G1 X24.396 Y1.314 E120.00482
G1 Z3.350 F12000.000
G1 X24.427 Y1.484
G1 X20.492 Y5.331 F600.000 E120.26953
G1 X10.928 Y21.896 E121.18968
G1 X5.629 Y20.412 E121.45439
G1 X-13.498 Y20.412 E122.37454
G1 X-14.158 Y17.836 E122.50245
G1 X-18.986 Y9.474 E122.96697
G1 X-19.691 Y6.719 E123.10377
G1 X-24.427 Y-1.484 E123.55940
G1 X-20.492 Y-5.331 E123.82412
G1 X-10.928 Y-21.896 E124.74427
G1 X-5.629 Y-20.412 E125.00898
G1 X13.498 Y-20.412 E125.92913
G1 X14.158 Y-17.836 E126.05704
G1 X18.986 Y-9.474 E126.52156
G1 X19.691 Y-6.719 E126.65836
G1 X24.383 Y1.409 E127.10982
G1 Z3.550 F12000.000
G1 X24.414 Y1.578
G1 X20.229 Y5.670 F600.000 E127.39137
G1 X10.840 Y21.932 E128.29468
G1 X5.204 Y20.354 E128.57623
G1 X-13.573 Y20.354 E129.47954
G1 X-14.276 Y17.608 E129.61587
G1 X-19.017 Y9.397 E130.07198
G1 X-19.765 Y6.473 E130.21720
G1 X-24.414 Y-1.578 E130.66441
G1 X-20.229 Y-5.670 E130.94596
G1 X-10.840 Y-21.932 E131.84927
G1 X-5.204 Y-20.354 E132.13082
G1 X13.573 Y-20.354 E133.03413
G1 X14.276 Y-17.608 E133.17046
G1 X19.017 Y-9.397 E133.62656
G1 X19.765 Y-6.473 E133.77178
G1 X24.370 Y1.503 E134.21482
G1 Z3.750 F12000.000
G1 X24.401 Y1.672
G1 X19.966 Y6.009 F600.000 E134.51321
G1 X10.752 Y21.968 E135.39968
G1 X4.779 Y20.295 E135.69807
G1 X-13.649 Y20.295 E136.58455
G1 X-14.395 Y17.380 E136.72929
G1 X-19.048 Y9.321 E137.17698
G1 X-19.840 Y6.227 E137.33062
G1 X-24.401 Y-1.672 E137.76941
G1 X-19.966 Y-6.009 E138.06779
G1 X-10.752 Y-21.968 E138.95427
G1 X-4.779 Y-20.295 E139.25266
G1 X13.649 Y-20.295 E140.13914
G1 X14.395 Y-17.380 E140.28388
G1 X19.048 Y-9.321 E140.73157
G1 X19.840 Y-6.227 E140.88520
G1 X24.357 Y1.597 E141.31982
G1 Z3.950 F12000.000
G1 X24.388 Y1.767
G1 X19.703 Y6.348 F600.000 E141.63505
G1 X10.664 Y22.004 E142.50469
G1 X4.354 Y20.237 E142.81991
G1 X-13.724 Y20.237 E143.68955
G1 X-14.513 Y17.152 E143.84271
G1 X-19.079 Y9.245 E144.28198
G1 X-19.914 Y5.981 E144.44404
G1 X-24.388 Y-1.767 E144.87441
G1 X-19.703 Y-6.348 E145.18963
G1 X-10.664 Y-22.004 E146.05928
G1 X-4.354 Y-20.237 E146.37450
G1 X13.724 Y-20.237 E147.24414
G1 X14.513 Y-17.152 E147.39730
G1 X19.079 Y-9.245 E147.83657
G1 X19.914 Y-5.981 E147.99863
G1 X24.344 Y1.692 E148.42483
G1 Z4.150 F12000.000
G1 X24.375 Y1.861
G1 X19.439 Y6.687 F600.000 E148.75688
G1 X10.576 Y22.040 E149.60969
G1 X3.929 Y20.179 E149.94175
G1 X-13.799 Y20.179 E150.79455
G1 X-14.632 Y16.925 E150.95614
G1 X-19.110 Y9.168 E151.38698
G1 X-19.989 Y5.735 E151.55746
G1 X-24.375 Y-1.861 E151.97941
G1 X-19.439 Y-6.687 E152.31147
G1 X-10.576 Y-22.040 E153.16428
G1 X-3.929 Y-20.179 E153.49634
G1 X13.799 Y-20.179 E154.34914
G1 X14.632 Y-16.925 E154.51072
G1 X19.110 Y-9.168 E154.94157
G1 X19.989 Y-5.735 E155.11205
G1 X24.331 Y1.786 E155.52983
G1 Z4.350 F12000.000
G1 X24.362 Y1.956
G1 X19.176 Y7.026 F600.000 E155.87872
G1 X10.487 Y22.076 E156.71469
G1 X3.503 Y20.120 E157.06359
G1 X-13.874 Y20.120 E157.89955
G1 X-14.751 Y16.697 E158.06956
G1 X-19.141 Y9.092 E158.49199
G1 X-20.064 Y5.489 E158.67088
G1 X-24.362 Y-1.956 E159.08442
G1 X-19.176 Y-7.026 E159.43331
G1 X-10.487 Y-22.076 E160.26928
G1 X-3.503 Y-20.120 E160.61818
G1 X13.874 Y-20.120 E161.45414
G1 X14.751 Y-16.697 E161.62414
G1 X19.141 Y-9.092 E162.04657
G1 X20.064 Y-5.489 E162.22547
G1 X24.318 Y1.880 E162.63483
G1 Z4.550 F12000.000
G1 X24.349 Y2.050
G1 X18.913 Y7.365 F600.000 E163.00056
G1 X10.399 Y22.112 E163.81969
G1 X3.078 Y20.062 E164.18543
G1 X-13.950 Y20.062 E165.00456
G1 X-14.869 Y16.469 E165.18298
G1 X-19.173 Y9.015 E165.59699
G1 X-20.138 Y5.243 E165.78430
G1 X-24.349 Y-2.050 E166.18942
G1 X-18.913 Y-7.365 E166.55515
G1 X-10.399 Y-22.112 E167.37428
G1 X-3.078 Y-20.062 E167.74001
G1 X13.950 Y-20.062 E168.55914
G1 X14.869 Y-16.469 E168.73757
G1 X19.173 Y-9.015 E169.15158
G1 X20.138 Y-5.243 E169.33889
G1 X24.305 Y1.975 E169.73983
G1 Z4.750 F12000.000
G1 X24.336 Y2.144
G1 X18.650 Y7.704 F600.000 E170.12240
G1 X10.311 Y22.148 E170.92470
G1 X2.653 Y20.003 E171.30727
G1 X-14.025 Y20.003 E172.10956
G1 X-14.988 Y16.241 E172.29640
G1 X-19.204 Y8.939 E172.70199
G1 X-20.213 Y4.997 E172.89772
G1 X-24.336 Y-2.144 E173.29442
G1 X-18.650 Y-7.704 E173.67699
G1 X-10.311 Y-22.148 E174.47928
G1 X-2.653 Y-20.003 E174.86185
G1 X14.025 Y-20.003 E175.66415
G1 X14.988 Y-16.241 E175.85099
G1 X19.204 Y-8.939 E176.25658
G1 X20.213 Y-4.997 E176.45231
G1 X24.292 Y2.069 E176.84484
G1 Z4.950 F12000.000
G1 X24.323 Y2.239
G1 X18.387 Y8.043 F600.000 E177.24424
G1 X10.223 Y22.184 E178.02970
G1 X2.228 Y19.945 E178.42911
G1 X-14.100 Y19.945 E179.21456
